icons/appbase.svg

<?xml version="1.0" encoding="UTF-8" standalone="no"?>
<svg width="256px" height="256px" viewBox="0 0 256 256" version="1.1" xmlns="http://www.w3.org/2000/svg" xmlns:xlink="http://www.w3.org/1999/xlink" preserveAspectRatio="xMidYMid">
    <g>
        <path d="M127.997452,0 C57.3106949,0 0,57.2750254 0,127.936304 C0,198.587392 57.3106949,255.872609 127.997452,255.872609 C198.684209,255.872609 256,198.587392 256,127.936304 C256.005096,57.2750254 198.689305,0 127.997452,0 L127.997452,0 Z M127.997452,248.743805 C61.2343399,248.743805 7.13389996,194.638269 7.13389996,127.936304 C7.13389996,61.2139573 61.2343399,7.12370867 127.997452,7.12370867 C194.735086,7.12370867 248.8661,61.2139573 248.8661,127.936304 C248.8661,194.638269 194.735086,248.743805 127.997452,248.743805 L127.997452,248.743805 Z M182.668604,104.51673 C178.434125,104.51673 174.683732,106.677283 172.477318,109.963972 L132.028106,98.8401839 C132.130019,98.0095941 132.216644,97.1739087 132.216644,96.3484146 C132.216644,86.3966241 124.150242,78.3353172 114.218834,78.3353172 C104.272139,78.3353172 96.2108322,86.3966241 96.2108322,96.3484146 C96.2108322,104.226278 101.316666,110.942336 108.419992,113.35767 L104.94986,135.095683 C103.186767,134.713509 101.372718,134.509684 99.4822349,134.509684 C85.3112522,134.509684 73.8409602,145.985071 73.8409602,160.130576 C73.8409602,174.296463 85.3112522,185.771851 99.4822349,185.771851 C113.632835,185.771851 125.133701,174.296463 125.133701,160.130576 C125.133701,156.466809 124.348972,152.996676 122.952766,149.832282 L172.640379,123.813929 C174.851888,126.973228 178.530942,129.05225 182.668604,129.05225 C189.476383,129.05225 194.974582,123.554052 194.974582,116.781942 C194.969486,109.999642 189.481479,104.51673 182.668604,104.51673 L182.668604,104.51673 Z M120.863552,146.005454 C118.025279,141.73021 113.958956,138.36199 109.148669,136.405263 L112.690141,114.259599 C113.19461,114.300364 113.683791,114.320747 114.218834,114.320747 C121.790959,114.320747 128.25733,109.653138 130.896873,103.049185 L170.724417,113.999721 C170.540974,114.886363 170.408487,115.808675 170.408487,116.771751 C170.408487,117.831645 170.561357,118.855869 170.811043,119.849519 L120.863552,146.005454 L120.863552,146.005454 Z" fill="#3BC7F6"></path>
    </g>
</svg>

<svg xmlns="http://www.w3.org/2000/svg" viewBox="0 0 256 255.873">
  <path fill="#3bc7f6" d="M127.997 0C57.311 0 0 57.275 0 127.936c0 70.651 57.31 127.937 127.997 127.937S256 198.587 256 127.936C256.005 57.275 198.69 0 127.997 0zm0 248.744c-66.763 0-120.863-54.106-120.863-120.808 0-66.722 54.1-120.812 120.863-120.812 66.738 0 120.87 54.09 120.87 120.812 0 66.702-54.132 120.808-120.87 120.808zm54.672-144.227c-4.235 0-7.985 2.16-10.192 5.447L132.028 98.84c.102-.83.189-1.666.189-2.492 0-9.951-8.067-18.013-17.998-18.013-9.947 0-18.008 8.062-18.008 18.013 0 7.878 5.106 14.594 12.209 17.01l-3.47 21.738a25.68 25.68 0 0 0-5.468-.586c-14.17 0-25.641 11.475-25.641 25.62 0 14.166 11.47 25.642 25.641 25.642 14.15 0 25.652-11.476 25.652-25.641 0-3.664-.785-7.134-2.181-10.299l49.687-26.018c2.212 3.16 5.89 5.238 10.029 5.238 6.807 0 12.306-5.498 12.306-12.27-.005-6.782-5.494-12.265-12.306-12.265zm-61.805 41.488a25.697 25.697 0 0 0-11.715-9.6l3.541-22.145c.505.04.994.06 1.529.06a17.946 17.946 0 0 0 16.678-11.27L170.724 114c-.183.886-.316 1.809-.316 2.772 0 1.06.153 2.084.403 3.077l-49.947 26.156z"/>
</svg>
